X: 54
T: an Tr\'i Is A Rian
N: "the Three Is His Track" (from google translate)
N: aka: James Morrisons, John Quinn’s No. 2, Miss McCleod’s, the Sands
C: trad.
O: arr. Matt Cranitch
%D:
R: hornpipe
S: Fiddle Hell Online 2022-4-7 handout for Matt Cranitch workshop
Z: 2022 John Chambers <jc:trillian.mit.edu>
M: 4/4
L: 1/8
K: G
"^A"[|] E2 |\
"A"A>Bc>A F>GA>B | c>dc>B c>dc>B | A>Bc>A "F#m"F>GA>c | "Bm"(3BcB (3AGF "E"E>dc>B |
"A"A>Bc>A F>GA>B | c>ef>g a2g>a | "D"f>dB>A "E"G>Be>d | "A"(3cBA "E"B>G "A"A2 :|
"^B"|: c>d |\
"A"e7/f/ a2a>f | e>dc>B A2B>c | "D"d2f>d "A"c2e>c | "Bm"(3BcB (3AGF "E"E>dc>B |
"A"A>Bc>A F>GA>B | c>ef>g a2g>a | "D"f>dB>A "E"G>Be>d | "A"(3cBA "E"B>G "A"A2 :|
